icons/lines/video-vertical.svg

<svg xmlns="http://www.w3.org/2000/svg" width="24" height="24" viewBox="0 0 24 24" fill="none" stroke="currentColor" stroke-width="2" stroke-linecap="round" stroke-linejoin="round" >
  <path d="M9 22H15C20 22 22 20 22 15V9C22 4 20 2 15 2H9C4 2 2 4 2 9V15C2 20 4 22 9 22Z"/>
  <path d="M6.89014 2.51999V21.48"/>
  <path d="M16.8901 2.51999V21.48"/>
  <path d="M6.89004 6.97H2.54004"/>
  <path d="M6.88978 12H2.02979"/>
  <path d="M6.88998 16.97H2.47998"/>
  <path d="M21.89 6.97H17.54"/>
  <path d="M21.8898 12H17.0298"/>
  <path d="M16.9702 12H5.97021"/>
  <path d="M21.89 16.97H17.48"/>
  </svg>

<svg xmlns="http://www.w3.org/2000/svg" width="24" height="24" viewBox="0 0 24 24" fill="none" stroke="currentColor" stroke-width="2" stroke-linecap="round" stroke-linejoin="round">
  <path d="M15 22c5 0 7-2 7-7V9c0-5-2-7-7-7H9C4 2 2 4 2 9v6c0 5 2 7 7 7z" />
  <path d="M16.89 2.52v18.96" />
  <path d="M2.03 12h14.94" />
  <path d="M21.89 12h-4.86" />
  <path d="M21.89 16.97h-4.41" />
  <path d="M21.89 6.97h-4.35" />
  <path d="M6.89 16.97H2.48" />
  <path d="M6.89 2.52v18.96" />
  <path d="M6.89 6.97H2.54" />
</svg>
